icon/gr/document-text.svg

<svg xmlns="http://www.w3.org/2000/svg" width="24" height="24"><path fill="none" stroke="#000" stroke-width="2" d="M6 16h10H6Zm0-4h12H6Zm0-4h5-5Zm8-7v7h7M3 23V1h12l6 6v16H3Z"/></svg>

<svg xmlns="http://www.w3.org/2000/svg" viewBox="0 0 24 24" height="1em" width="1em">
  <path fill="none" stroke="#000" stroke-width="2" d="M6,16 L16,16 L6,16 L6,16 Z M6,12 L18,12 L6,12 L6,12 Z M6,8 L11,8 L6,8 L6,8 Z M14,1 L14,8 L21,8 M3,23 L3,1 L15,1 L21,7 L21,23 L3,23 Z"/>
</svg>
